X: 86
M:6/8
L:1/8
K:G
ue"^Segno"|\
dcA G2B | DDD G2B | AGA cBA | BGE c2e |
dcA G2B | DDD G2B | AGA cBA |1 BGE c2:|2 BGE E2 H|]
uc|\


